X: 03018
T: CESSY BUCK
C: Bob McQuillen 23 July 77
B: Bob's Note Book 03 #18
%R: jig
%D:1977
Z: 2020 John Chambers <jc:trillian.mit.edu>
M: 6/8
L: 1/8
K: D
B \
| A2d AFG | Ade fef | gab afe | fdf edB |\
| A2d AFG | Ade fef | gab afd | e2-e d2 :|
|: f \
| afb afb | afd e2f | def ede | fBB B2f |\
| afb afb | afd ede | afd eag | fdd d2 :|
%%begintext align
%% For Cessy with love - I wish
%% the tune was as nice as you!
%%endtext

%%sep 1 1 500

%%sep 1 1 500

